X:26
T:Albert Hughes’Waltz,aka. AJH.026
M:3/8
L:1/8
Q:3/8=50
S:A.J.Hughes MS
C:untitled in MS
N:Such a nice tune deserves a title – “Albert Hughes’s Waltz”?
N:In 3/8 it would perhaps be better as a mazurka. I have set the pace at
N:slightly faster than Capt Edward’s Waltz. NeilB.
O:England
A:North Shropshire
Z:Neil Brookes 2006
K:D
D/F/|AA F/A/|dde/f/|g/f/e/ d/c/B/|A/B/A/ F/D/F/|!
AA F/A/|dde/f/|g/f/e/ d/c/e/|d2::!
c/d/|ed/c/B/A/|fe/d/c/B/|gg/f/e/d/|ce A/c/|!
ed/c/B/A/|gg/f/e/d/|BB/d/c/e/|d2::!
F/G/|A (3f/e/d/ (3d/c/B/|AFA|Bg/f/e/d/|dc F/G/|!
A (3f/e/d/ (3d/c/B/|AFA|BB/d/ c/e/|d2:|

